images/icon-linkedin.svg

<svg width="25" height="24" viewBox="0 0 25 24" fill="none" xmlns="http://www.w3.org/2000/svg">
<path fill-rule="evenodd" clip-rule="evenodd" d="M12.5039 0C5.87649 0 0.503906 5.37258 0.503906 12C0.503906 18.6274 5.87649 24 12.5039 24C19.1313 24 24.5039 18.6274 24.5039 12C24.5039 5.37258 19.1313 0 12.5039 0ZM6.26471 9.93892H8.98418V18.1098H6.26471V9.93892ZM9.16329 7.41135C9.14564 6.6102 8.57273 6 7.64242 6C6.71211 6 6.10391 6.6102 6.10391 7.41135C6.10391 8.1959 6.69414 8.82367 7.60712 8.82367H7.6245C8.57273 8.82367 9.16329 8.1959 9.16329 7.41135ZM15.6605 9.74706C17.45 9.74706 18.7916 10.9151 18.7916 13.4249L18.7915 18.1098H16.0721V13.7384C16.0721 12.6404 15.6786 11.8911 14.6942 11.8911C13.9428 11.8911 13.4953 12.3962 13.2988 12.8841C13.2269 13.0589 13.2092 13.3025 13.2092 13.5467V18.11H10.4895C10.4895 18.11 10.5253 10.7059 10.4895 9.93914H13.2092V11.0965C13.5702 10.5401 14.2166 9.74706 15.6605 9.74706Z" fill="#9E9DAD"/>
</svg>

<svg xmlns="http://www.w3.org/2000/svg" width="25" height="24" fill="none"><path fill="#9E9DAD" fill-rule="evenodd" d="M12.504 0c-6.628 0-12 5.373-12 12s5.372 12 12 12c6.627 0 12-5.373 12-12s-5.373-12-12-12Zm-6.24 9.939h2.72v8.17h-2.72V9.94Zm2.9-2.528C9.145 6.611 8.572 6 7.641 6c-.93 0-1.538.61-1.538 1.411 0 .785.59 1.413 1.503 1.413h.018c.948 0 1.538-.628 1.538-1.413Zm6.497 2.336c1.789 0 3.13 1.168 3.13 3.678v4.685h-2.719v-4.372c0-1.098-.393-1.847-1.378-1.847-.751 0-1.199.505-1.395.993-.072.175-.09.418-.09.663v4.563h-2.72s.036-7.404 0-8.17h2.72v1.157c.361-.557 1.008-1.35 2.452-1.35Z" clip-rule="evenodd"/></svg>
